svgs/sharp-light/compress.svg

<svg xmlns="http://www.w3.org/2000/svg" viewBox="0 0 448 512"><!--! Font Awesome Pro 6.6.0 by @fontawesome - https://fontawesome.com License - https://fontawesome.com/license (Commercial License) Copyright 2024 Fonticons, Inc. --><path d="M160 48l0-16-32 0 0 16 0 112L16 160 0 160l0 32 16 0 128 0 16 0 0-16 0-128zM16 320L0 320l0 32 16 0 112 0 0 112 0 16 32 0 0-16 0-128 0-16-16 0L16 320zM320 48l0-16-32 0 0 16 0 128 0 16 16 0 128 0 16 0 0-32-16 0-112 0 0-112zM304 320l-16 0 0 16 0 128 0 16 32 0 0-16 0-112 112 0 16 0 0-32-16 0-128 0z"/></svg>

<svg xmlns="http://www.w3.org/2000/svg" viewBox="0 0 448 512"><!--! Font Awesome Pro 6.5.2 by @fontawesome - https://fontawesome.com License - https://fontawesome.com/license (Commercial License) Copyright 2024 Fonticons, Inc. --><path d="M160 48V32H128V48 160H16 0v32H16 144h16V176 48zM16 320H0v32H16 128V464v16h32V464 336 320H144 16zM320 48V32H288V48 176v16h16H432h16V160H432 320V48zM304 320H288v16V464v16h32V464 352H432h16V320H432 304z"/></svg>
